X:1
T:Dr. Albertino
L:1/8
Q:1/4=120
M:4/4
K:C
z8                | z A  fd  _B2 (A2 | ^G3/2B) d/f  e4            | z            A   e^c A2 G2 | F3/2A ^c/e d4      |
^G,A,   DF _BA GF | F E2 z/  A,/ G,4 | z       A,   ^CE AG FE     | G/^F/        =F6 z         | z     A fd _BF (A2 |
^G3/2B) d/f e4    | z A  e^c A2  G2  | F3/2A   ^c/e d3  ([G,_B,]) | [G,_B,]B,/D/ GA  GF  ED    | z8                 |]


